Papirus/16x16/actions/snap-intersection.svg

<?xml version="1.0" encoding="UTF-8" standalone="no"?>
<svg xmlns="http://www.w3.org/2000/svg" viewBox="0 0 16 16">
  <defs>
    <style type="text/css" id="current-color-scheme">
      .ColorScheme-Text {
        color:#5c616c;
      }
      </style>
  </defs>
  <path style="fill:currentColor;opacity:1" class="ColorScheme-Text" d="M 13.646484 1.6464844 L 9.2929688 6 L 6 6 L 6 9.2929688 L 1.6464844 13.646484 L 2.3535156 14.353516 L 6.7070312 10 L 10 10 L 10 6.7070312 L 14.353516 2.3535156 L 13.646484 1.6464844 z M 2 2 L 2 3 L 3 3 L 3 2 L 2 2 z M 4 4 L 4 5 L 5 5 L 5 4 L 4 4 z M 11 11 L 11 12 L 12 12 L 12 11 L 11 11 z M 13 13 L 13 14 L 14 14 L 14 13 L 13 13 z "/>
</svg>

<?xml version="1.0" encoding="UTF-8" standalone="no"?>
<!--Created with Inkscape (http://www.inkscape.org/)-->
<svg id="svg3049" xmlns:rdf="http://www.w3.org/1999/02/22-rdf-syntax-ns#" xmlns="http://www.w3.org/2000/svg" height="16" width="16" version="1.1" xmlns:cc="http://creativecommons.org/ns#" xmlns:dc="http://purl.org/dc/elements/1.1/">
 <defs id="defs3051">
 </defs>
 <metadata id="metadata3054">
  <rdf:RDF>
   <cc:Work rdf:about="">
    <dc:format>image/svg+xml</dc:format>
    <dc:type rdf:resource="http://purl.org/dc/dcmitype/StillImage"/>
    <dc:title/>
   </cc:Work>
  </rdf:RDF>
 </metadata>
 <g id="layer1" transform="translate(-421.71 -531.79)">
  <path id="rect4830" opacity="1" fill="#5c616c" class="ColorScheme-Text" transform="translate(421.71 531.79)" d="m13.646 1.6465l-4.353 4.3535h-3.293v3.293l-4.3535 4.353 0.707 0.708 4.3535-4.354h3.293v-3.293l4.354-4.3535-0.708-0.707zm-11.646 0.3535v1h1v-1h-1zm2 2v1h1v-1h-1zm7 7v1h1v-1h-1zm2 2v1h1v-1h-1z"/>
 </g>
</svg>
